X:504
T: Scheiern, Scheiern, laachen (5-100), S. 158
N: P0774
O: Lothringen
S: MERKELBACH-PINCK, Angelika: Verklingende Weisen, Bd 5, Kassel 1962]
N: Kinderliedterno
R: Brauchtumslied]
M: 2/4
L: 1/16
K: E
 | =G2G2A2A2 | =G4E2z2 |
G4A2A2 | =G4E2z2 |
G2E2E2z2 | =G4E4 |
G2G2A2A2 | =G4E2
EE | =G2G2(3A2A2A2 | =G4E2z2

@@@ Tune index: 8054
